!!!COM: Corelli, Arcangelo
!!!OTL: Sonate a tre [in D]
!!!XEN: Trio Sonata Opus 1, No. 12
!!!OPS: Opus 1
!!!ONM: No. 12
!!!OMV: Movement 3.
!!!YEC: Copyright 1994, Center for Computer Assisted Research in the Humanities
!!!YEM: Rights to all derivative electronic formats reserved.
!!!YEM: Refer to licensing agreement for further details.
!! For the following instrumentation: Violino I & II, Violone/Archlute,
!!    and Organo.
!! Grave.
**kern	**kern	**kern	**kern
*ICklav	*ICstr	*ICstr	*ICstr
*Iorgan	*Icello	*Ivioln	*Ivioln
*	*Iarchl	*	*
!Organo	!Violone	!Violin 2	!Violin 1
!	! or	!	!
!	!Archlute	!	!
*clefF4	*clefF4	*clefG2	*clefG2
*k[f#c#]	*k[f#c#]	*k[f#c#]	*k[f#c#]
*b:	*b:	*b:	*b:
*M4/4	*M4/4	*M4/4	*M4/4
*MM48	*MM48	*MM48	*MM48
=1-	=1-	=1-	=1-
4B\	4B\	4dd\	4ff#\
4A#\	4A#\	4cc#\	4ff#\
2B\	2B\	2dd\	2ff#\
=2	=2	=2	=2
4B\	4B\	4f#/	4dd\
4A\	4A\	[4f#/	4cc#\
2G\	2G\	4f#/]	2b\
.	.	4e/	.
=3	=3	=3	=3
2F#\	2F#\	2f#/	2a#/
4d\	4d\	4ff#\	2aa\
4c#\	4c#\	4ee\	.
=4	=4	=4	=4
4B\	4B\	4dd\	4gg\
4A\	4A\	4cc#\	2ff#\
4G\	4G\	(8b\L	.
.	.	8cc#\J)	.
4G#\	4G#\	[4dd\	4ffn\
=5	=5	=5	=5
4A\	4A\	4dd\]	2ee\
4AA/	4AA/	4cc#\	.
2D\	2D\	2dd\	2ff#\
=6	=6	=6	=6
4BB/	4BB/	4d/	4f#/
4AA#/	4AA#/	4c#/	4f#/
2BB/	2BB/	2d/	2f#/
=7	=7	=7	=7
4B\	4B\	2ff#\	4dd\
4A\	4A\	.	4dd#\
2G\	2G\	4b\	4.ee\
.	.	[4ee\	.
.	.	.	8bb\
=8	=8	=8	=8
4F#\	4F#\	4ee\]	4aa\
4BB/	4BB/	4dd#\	2aa\
2E\	2E\	8ee\L	.
.	.	8b\J	.
.	.	[4ee\	4gg\
=9	=9	=9	=9
2AA#/	2AA#/	4ee\]	[2ff#\
.	.	8dd\L	.
.	.	8cc#\J	.
4BB/	4BB/	4.dd\	8ff#\L]
.	.	.	8ff#\J
4B\	4B\	.	[4gg\
.	.	(16ee\LL	.
.	.	16dd\JJ)	.
=10	=10	=10	=10
2A\	2A\	4.cc#\	8gg\L]
.	.	.	(16aa\L
.	.	.	16gg\JJ)
.	.	.	[4ff#\
.	.	(16dd\LL	.
.	.	16cc#\JJ)	.
2G\	2G\	4.b\	8ff#\L]
.	.	.	(16gg\L
.	.	.	16ff#\JJ)
.	.	.	[4ee\
.	.	(16cc#\LL	.
.	.	16b\JJ)	.
=11	=11	=11	=11
4F#\	4F#\	8a#/L	4ee\]
.	.	8f#/J	.
4G\	4G\	2b\	4dd\
4E\	4E\	.	2cc#\
4F#\	4F#\	4a#/	.
=12	=12	=12	=12
4BB/	4BB/	4b\	8b\L
.	.	.	8b\J
8r	8r	8r	[4ff#\
8AA/	8AA/	8cc#\	.
2GG/	2GG/	4.b\	8ff#\L]
.	.	.	(16gg\L
.	.	.	16ff#\JJ)
.	.	.	4ee\
.	.	16cc#\LL	.
.	.	16b\JJ	.
=13	=13	=13	=13
2FF#/	2FF#/	2a#/	2ff#\
2r;	2r;	2r;	2r;
==	==	==	==
*-	*-	*-	*-
!!!CDT: 1653/2/17/-1713/1/8
!!!OCY: Italia
!!!ODE: Queen Christina Alexandra of Sweden
!!!ODT: 1681//
!!!OPC: Roma; Rome
!!!AGN: trio sonata
!!!AST: baroque, chamber
!!!AMT: simple quadruple
!!!YOR1: J. Joachim & F. Chrysander (eds.) Les Oeuvre de Arcangelo Corelli
!!!YOR2: London: Augener & Co. 1871
!!!YOY: 1871
!!!AIN: archl cello organ violn
!!!EEV: 1.1
!!!RDT: 1993 September 17
!!!YER: 1994 December 14
!!!EMD: 1996 July 9
!!!YEN: United States of America
!!!EFL: 3/4
!!!ENC: Frances Bennion & Steven Rasmussen
!!!EED: W.B. Hewlett
!!!VTS: 3588106799
